X:1
T:Title
%%score { ( 1 3 ) | 2 }
L:1/8
Q:1/4=100
M:4/4
K:Eb
V:1 treble nm="Grand Piano"
V:3 treble 
V:2 bass 
V:1
 [GB]2 =A>B c2 [GB]2 | [Ge]2 [GB]2 [Bd] c3 | B4 c2 [GB]2 | [DF]6 z2 | [GB]2 =A>B c2 [GB]2 | %5
w: S.~Bardsley * * * *|||||
 [Ge]2 [GB]2 [Bd] [Ac]3 | [EB]2 [E=A]>[EB] [Dc]2 [_Ad]2 | [Ge]6 z2 | [Fd]3 [Fd] [Fd]2 cd | %9
w: ||||
 [Ge]3 [GB] [Ec]2 [GB]2 | [Ec]3 [Bd] [Ge]2 [Af]2 | [EGe]4 [Fd]4 | [GB]2 =A>B c2 [GB]2 | %13
w: ||||
 [Ge]2 [GB]2 [Bd] [Ac]3 | [EB]2 [E=A]>[EB] [Dc]2 [_Ad]2 | [Ge]6 z2 |] %16
w: |||
V:2
 [E,B,]2 [E,CE]>[E,G,E] [E,A,E]2 [E,B,]2 | [E,B,]2[K:treble] [G,E]2 [A,E] [A,EA]3 | %2
 [E,G,E]4 [E,A,E]2 [E,B,]2 | [B,,B,]6 z2 | [E,B,]2 [E,CE]>[E,G,E] [E,A,E]2 [E,B,]2 | %5
 [E,B,]2 [G,E]2 [A,E] [A,E]3 | [B,,G,]2 [B,,_G,]>[B,,=G,] [B,,A,]2 [B,,B,]2 | [E,B,]6 z2 | %8
 [B,,B,]3 [B,,B,] [B,,B,]2 C,D, | [E,B,]3 [E,E] [A,C]2 [E,E]2 | [A,C]3 [F,D] [G,B,]2 [A,C]2 | %11
 B,4 [B,,B,]4 | [E,B,]2 [E,CE]>[E,G,E] [E,A,E]2 [E,B,]2 | [E,B,]2 [G,E]2 [A,E] [A,E]3 | %14
 [B,,G,]2 [B,,_G,]>[B,,=G,] [B,,A,]2 [B,,B,]2 | [E,B,]6 z2 |] %16
V:3
 x8 | x8 | x8 | x8 | x8 | x8 | x8 | x8 | z4 z2 [B,F]2 | x8 | x8 | x8 | x8 | x8 | x8 | x8 |] %16

